X:1
T:Heel and Toe Polka
M:4/4
L:1/8
K:G
B2 B2 AG G2|FGAB d^c =c2|c2 c2 BA A2|GFEF ED D2|
B2 B2 AG G2|FGAB d^c =c2|c2 c2 BA A2|GFEF G2 G2||
[K:Em]BEBE BE E2|GE E/F/G/E/ FB, B,2|BEBE BE E2|GGFG/F/ E2 E2|
BEBE BE E2|GE E/F/G/E/ FB, B,2|BEBE BE E2|GGFG/F/ E2 E2||
[K:G]D2 GA B2 B>c|dBGA B2 B>d|cc A>c BB G>B|AEFG AFED|
D2 GA B2 B>c|dBGA B2 B>d|cc A>c BB G>B|AEFD G2 G2||
